bernoullicharts/pow_x_4_5__bits.svg

<?xml version="1.0" encoding="utf-8" standalone="no"?>
<!DOCTYPE svg PUBLIC "-//W3C//DTD SVG 1.1//EN"
  "http://www.w3.org/Graphics/SVG/1.1/DTD/svg11.dtd">
<!-- Created with matplotlib (https://matplotlib.org/) -->
<svg height="345.6pt" version="1.1" viewBox="0 0 460.8 345.6" width="460.8pt" xmlns="http://www.w3.org/2000/svg" xmlns:xlink="http://www.w3.org/1999/xlink">
 <defs>
  <style type="text/css">
*{stroke-linecap:butt;stroke-linejoin:round;}
  </style>
 </defs>
 <g id="figure_1">
  <g id="patch_1">
   <path d="M 0 345.6 
L 460.8 345.6 
L 460.8 0 
L 0 0 
z
" style="fill:#ffffff;"/>
  </g>
  <g id="axes_1">
   <g id="patch_2">
    <path d="M 57.6 307.584 
L 414.72 307.584 
L 414.72 41.472 
L 57.6 41.472 
z
" style="fill:#ffffff;"/>
   </g>
   <g id="matplotlib.axis_1">
    <g id="xtick_1">
     <g id="line2d_1">
      <defs>
       <path d="M 0 0 
L 0 3.5 
" id="m10b47c6010" style="stroke:#000000;stroke-width:0.8;"/>
      </defs>
      <g>
       <use style="stroke:#000000;stroke-width:0.8;" x="73.800255" xlink:href="#m10b47c6010" y="307.584"/>
      </g>
     </g>
     <g id="text_1">
      <text style="font-family:DejaVu Sans;font-size:10px;font-style:normal;font-weight:normal;text-anchor:middle;" transform="rotate(-0, 73.800255, 322.182437)" x="73.800255" y="322.182437">0.0</text>
     </g>
    </g>
    <g id="xtick_2">
     <g id="line2d_2">
      <g>
       <use style="stroke:#000000;stroke-width:0.8;" x="138.744153" xlink:href="#m10b47c6010" y="307.584"/>
      </g>
     </g>
     <g id="text_2">
      <text style="font-family:DejaVu Sans;font-size:10px;font-style:normal;font-weight:normal;text-anchor:middle;" transform="rotate(-0, 138.744153, 322.182437)" x="138.744153" y="322.182437">0.2</text>
     </g>
    </g>
    <g id="xtick_3">
     <g id="line2d_3">
      <g>
       <use style="stroke:#000000;stroke-width:0.8;" x="203.688051" xlink:href="#m10b47c6010" y="307.584"/>
      </g>
     </g>
     <g id="text_3">
      <text style="font-family:DejaVu Sans;font-size:10px;font-style:normal;font-weight:normal;text-anchor:middle;" transform="rotate(-0, 203.688051, 322.182437)" x="203.688051" y="322.182437">0.4</text>
     </g>
    </g>
    <g id="xtick_4">
     <g id="line2d_4">
      <g>
       <use style="stroke:#000000;stroke-width:0.8;" x="268.631949" xlink:href="#m10b47c6010" y="307.584"/>
      </g>
     </g>
     <g id="text_4">
      <text style="font-family:DejaVu Sans;font-size:10px;font-style:normal;font-weight:normal;text-anchor:middle;" transform="rotate(-0, 268.631949, 322.182437)" x="268.631949" y="322.182437">0.6</text>
     </g>
    </g>
    <g id="xtick_5">
     <g id="line2d_5">
      <g>
       <use style="stroke:#000000;stroke-width:0.8;" x="333.575847" xlink:href="#m10b47c6010" y="307.584"/>
      </g>
     </g>
     <g id="text_5">
      <text style="font-family:DejaVu Sans;font-size:10px;font-style:normal;font-weight:normal;text-anchor:middle;" transform="rotate(-0, 333.575847, 322.182437)" x="333.575847" y="322.182437">0.8</text>
     </g>
    </g>
    <g id="xtick_6">
     <g id="line2d_6">
      <g>
       <use style="stroke:#000000;stroke-width:0.8;" x="398.519745" xlink:href="#m10b47c6010" y="307.584"/>
      </g>
     </g>
     <g id="text_6">
      <text style="font-family:DejaVu Sans;font-size:10px;font-style:normal;font-weight:normal;text-anchor:middle;" transform="rotate(-0, 398.519745, 322.182437)" x="398.519745" y="322.182437">1.0</text>
     </g>
    </g>
    <g id="text_7">
     <text style="font-family:DejaVu Sans;font-size:10px;font-style:normal;font-weight:normal;text-anchor:middle;" transform="rotate(-0, 236.16, 335.860562)" x="236.16" y="335.860562">Probability</text>
    </g>
   </g>
   <g id="matplotlib.axis_2">
    <g id="ytick_1">
     <g id="line2d_7">
      <defs>
       <path d="M 0 0 
L -3.5 0 
" id="mbf7640eab3" style="stroke:#000000;stroke-width:0.8;"/>
      </defs>
      <g>
       <use style="stroke:#000000;stroke-width:0.8;" x="57.6" xlink:href="#mbf7640eab3" y="275.958805"/>
      </g>
     </g>
     <g id="text_8">
      <text style="font-family:DejaVu Sans;font-size:10px;font-style:normal;font-weight:normal;text-anchor:end;" transform="rotate(-0, 50.6, 279.758023)" x="50.6" y="279.758023">5</text>
     </g>
    </g>
    <g id="ytick_2">
     <g id="line2d_8">
      <g>
       <use style="stroke:#000000;stroke-width:0.8;" x="57.6" xlink:href="#mbf7640eab3" y="243.774897"/>
      </g>
     </g>
     <g id="text_9">
      <text style="font-family:DejaVu Sans;font-size:10px;font-style:normal;font-weight:normal;text-anchor:end;" transform="rotate(-0, 50.6, 247.574115)" x="50.6" y="247.574115">10</text>
     </g>
    </g>
    <g id="ytick_3">
     <g id="line2d_9">
      <g>
       <use style="stroke:#000000;stroke-width:0.8;" x="57.6" xlink:href="#mbf7640eab3" y="211.590989"/>
      </g>
     </g>
     <g id="text_10">
      <text style="font-family:DejaVu Sans;font-size:10px;font-style:normal;font-weight:normal;text-anchor:end;" transform="rotate(-0, 50.6, 215.390207)" x="50.6" y="215.390207">15</text>
     </g>
    </g>
    <g id="ytick_4">
     <g id="line2d_10">
      <g>
       <use style="stroke:#000000;stroke-width:0.8;" x="57.6" xlink:href="#mbf7640eab3" y="179.40708"/>
      </g>
     </g>
     <g id="text_11">
      <text style="font-family:DejaVu Sans;font-size:10px;font-style:normal;font-weight:normal;text-anchor:end;" transform="rotate(-0, 50.6, 183.206299)" x="50.6" y="183.206299">20</text>
     </g>
    </g>
    <g id="ytick_5">
     <g id="line2d_11">
      <g>
       <use style="stroke:#000000;stroke-width:0.8;" x="57.6" xlink:href="#mbf7640eab3" y="147.223172"/>
      </g>
     </g>
     <g id="text_12">
      <text style="font-family:DejaVu Sans;font-size:10px;font-style:normal;font-weight:normal;text-anchor:end;" transform="rotate(-0, 50.6, 151.022391)" x="50.6" y="151.022391">25</text>
     </g>
    </g>
    <g id="ytick_6">
     <g id="line2d_12">
      <g>
       <use style="stroke:#000000;stroke-width:0.8;" x="57.6" xlink:href="#mbf7640eab3" y="115.039264"/>
      </g>
     </g>
     <g id="text_13">
      <text style="font-family:DejaVu Sans;font-size:10px;font-style:normal;font-weight:normal;text-anchor:end;" transform="rotate(-0, 50.6, 118.838483)" x="50.6" y="118.838483">30</text>
     </g>
    </g>
    <g id="ytick_7">
     <g id="line2d_13">
      <g>
       <use style="stroke:#000000;stroke-width:0.8;" x="57.6" xlink:href="#mbf7640eab3" y="82.855356"/>
      </g>
     </g>
     <g id="text_14">
      <text style="font-family:DejaVu Sans;font-size:10px;font-style:normal;font-weight:normal;text-anchor:end;" transform="rotate(-0, 50.6, 86.654575)" x="50.6" y="86.654575">35</text>
     </g>
    </g>
    <g id="ytick_8">
     <g id="line2d_14">
      <g>
       <use style="stroke:#000000;stroke-width:0.8;" x="57.6" xlink:href="#mbf7640eab3" y="50.671448"/>
      </g>
     </g>
     <g id="text_15">
      <text style="font-family:DejaVu Sans;font-size:10px;font-style:normal;font-weight:normal;text-anchor:end;" transform="rotate(-0, 50.6, 54.470667)" x="50.6" y="54.470667">40</text>
     </g>
    </g>
    <g id="text_16">
     <text style="font-family:DejaVu Sans;font-size:10px;font-style:normal;font-weight:normal;text-anchor:middle;" transform="rotate(-90, 31.795312, 174.528)" x="31.795312" y="174.528">Average Bits Consumed Per Call</text>
    </g>
   </g>
   <g id="line2d_15">
    <path clip-path="url(#p82ade3a81a)" d="M 73.832727 53.568 
L 77.112066 240.260414 
L 80.391405 256.64846 
L 83.670744 248.744092 
L 86.950083 261.939494 
L 90.229421 262.42869 
L 93.50876 264.256736 
L 96.788099 264.88754 
L 100.067438 269.264552 
L 103.346777 270.423172 
L 106.626116 265.917425 
L 109.905455 273.088 
L 113.184793 269.766621 
L 116.464132 274.246621 
L 119.743471 268.273287 
L 123.02281 273.770299 
L 126.302149 276.589609 
L 129.581488 276.04892 
L 132.860826 275.006161 
L 136.140165 275.096276 
L 139.419504 276.975816 
L 142.698843 276.666851 
L 145.978182 278.816736 
L 149.257521 278.803862 
L 152.53686 278.224552 
L 155.816198 278.675126 
L 159.095537 279.190069 
L 162.374876 278.739494 
L 165.654215 279.383172 
L 168.933554 281.005241 
L 172.212893 280.245701 
L 175.492231 279.215816 
L 178.77157 282.331218 
L 182.050909 278.829609 
L 185.330248 281.854897 
L 188.609587 282.253977 
L 191.888926 282.62731 
L 195.168264 283.605701 
L 198.447603 282.241103 
L 201.726942 283.515586 
L 205.006281 283.837425 
L 208.28562 283.103632 
L 211.564959 286.038805 
L 214.844298 283.322483 
L 218.123636 284.674207 
L 221.402975 286.476506 
L 224.682314 284.262253 
L 227.961653 286.566621 
L 231.240992 286.592368 
L 234.520331 286.914207 
L 237.799669 286.334897 
L 241.079008 286.025931 
L 244.358347 287.24892 
L 247.637686 286.013057 
L 250.917025 286.88846 
L 254.196364 288.137195 
L 257.475702 287.532138 
L 260.755041 289.643402 
L 264.03438 286.34777 
L 267.313719 288.999724 
L 270.593058 286.836966 
L 273.872397 288.665011 
L 277.151736 287.995586 
L 280.431074 289.192828 
L 283.710413 289.437425 
L 286.989752 289.52754 
L 290.269091 289.978115 
L 293.54843 289.965241 
L 296.827769 290.055356 
L 300.107107 290.06823 
L 303.386446 290.454437 
L 306.665785 289.630529 
L 309.945124 291.020874 
L 313.224463 291.419954 
L 316.503802 291.831908 
L 319.78314 291.123862 
L 323.062479 290.042483 
L 326.341818 291.535816 
L 329.621157 291.329839 
L 332.900496 290.763402 
L 336.179835 291.986391 
L 339.459174 292.900414 
L 342.738512 292.256736 
L 346.017851 293.222253 
L 349.29719 292.823172 
L 352.576529 293.029149 
L 355.855868 292.913287 
L 359.135207 293.003402 
L 362.414545 293.865931 
L 365.693884 293.441103 
L 368.973223 294.277885 
L 372.252562 294.612598 
L 375.531901 293.402483 
L 378.81124 294.612598 
L 382.090579 294.831448 
L 385.369917 293.801563 
L 388.649256 295.488 
L 391.928595 294.715586 
L 395.207934 295.140414 
L 398.487273 295.30777 
" style="fill:none;stroke:#1f77b4;stroke-linecap:square;stroke-width:1.5;"/>
   </g>
   <g id="patch_3">
    <path d="M 57.6 307.584 
L 57.6 41.472 
" style="fill:none;stroke:#000000;stroke-linecap:square;stroke-linejoin:miter;stroke-width:0.8;"/>
   </g>
   <g id="patch_4">
    <path d="M 414.72 307.584 
L 414.72 41.472 
" style="fill:none;stroke:#000000;stroke-linecap:square;stroke-linejoin:miter;stroke-width:0.8;"/>
   </g>
   <g id="patch_5">
    <path d="M 57.6 307.584 
L 414.72 307.584 
" style="fill:none;stroke:#000000;stroke-linecap:square;stroke-linejoin:miter;stroke-width:0.8;"/>
   </g>
   <g id="patch_6">
    <path d="M 57.6 41.472 
L 414.72 41.472 
" style="fill:none;stroke:#000000;stroke-linecap:square;stroke-linejoin:miter;stroke-width:0.8;"/>
   </g>
   <g id="text_17">
    <text style="font-family:DejaVu Sans;font-size:12px;font-style:normal;font-weight:normal;text-anchor:middle;" transform="rotate(-0, 236.16, 35.472)" x="236.16" y="35.472">Avg. Bits Consumed by pow(x,4/5) Algorithm</text>
   </g>
   <g id="legend_1">
    <g id="patch_7">
     <path d="M 322.080938 64.150125 
L 407.72 64.150125 
Q 409.72 64.150125 409.72 62.150125 
L 409.72 48.472 
Q 409.72 46.472 407.72 46.472 
L 322.080938 46.472 
Q 320.080938 46.472 320.080938 48.472 
L 320.080938 62.150125 
Q 320.080938 64.150125 322.080938 64.150125 
z
" style="fill:#ffffff;opacity:0.8;stroke:#cccccc;stroke-linejoin:miter;"/>
    </g>
    <g id="line2d_16">
     <path d="M 324.080938 54.570438 
L 344.080938 54.570438 
" style="fill:none;stroke:#1f77b4;stroke-linecap:square;stroke-width:1.5;"/>
    </g>
    <g id="line2d_17"/>
    <g id="text_18">
     <text style="font-family:DejaVu Sans;font-size:10px;font-style:normal;font-weight:normal;text-anchor:start;" transform="rotate(-0, 352.080938, 58.070438)" x="352.080938" y="58.070438">pow(x,4/5)</text>
    </g>
   </g>
  </g>
 </g>
 <defs>
  <clipPath id="p82ade3a81a">
   <rect height="266.112" width="357.12" x="57.6" y="41.472"/>
  </clipPath>
 </defs>
</svg>

<svg height="460.8" viewBox="0 0 460.8 345.6" width="614.4" xmlns="http://www.w3.org/2000/svg" xmlns:xlink="http://www.w3.org/1999/xlink"><defs><style>*{stroke-linecap:butt;stroke-linejoin:round}</style></defs><g id="figure_1"><path d="M0 345.6h460.8V0H0z" fill="#fff" id="patch_1"/><g id="axes_1"><path d="M57.6 307.584h357.12V41.472H57.6z" fill="#fff" id="patch_2"/><g id="matplotlib.axis_1"><g id="xtick_1"><g id="line2d_1"><defs><path d="M0 0v3.5" id="m10b47c6010" stroke="#000" stroke-width=".8"/></defs><use x="73.8" xlink:href="#m10b47c6010" y="307.584" stroke="#000" stroke-width=".8"/></g><text x="73.8" y="322.182" font-family="DejaVu Sans" font-size="10" font-weight="400" text-anchor="middle" id="text_1">0.0</text></g><g id="xtick_2"><use x="138.744" xlink:href="#m10b47c6010" y="307.584" stroke="#000" stroke-width=".8" id="line2d_2"/><text x="138.744" y="322.182" font-family="DejaVu Sans" font-size="10" font-weight="400" text-anchor="middle" id="text_2">0.2</text></g><g id="xtick_3"><use x="203.688" xlink:href="#m10b47c6010" y="307.584" stroke="#000" stroke-width=".8" id="line2d_3"/><text x="203.688" y="322.182" font-family="DejaVu Sans" font-size="10" font-weight="400" text-anchor="middle" id="text_3">0.4</text></g><g id="xtick_4"><use x="268.632" xlink:href="#m10b47c6010" y="307.584" stroke="#000" stroke-width=".8" id="line2d_4"/><text x="268.632" y="322.182" font-family="DejaVu Sans" font-size="10" font-weight="400" text-anchor="middle" id="text_4">0.6</text></g><g id="xtick_5"><use x="333.576" xlink:href="#m10b47c6010" y="307.584" stroke="#000" stroke-width=".8" id="line2d_5"/><text x="333.576" y="322.182" font-family="DejaVu Sans" font-size="10" font-weight="400" text-anchor="middle" id="text_5">0.8</text></g><g id="xtick_6"><use x="398.52" xlink:href="#m10b47c6010" y="307.584" stroke="#000" stroke-width=".8" id="line2d_6"/><text x="398.52" y="322.182" font-family="DejaVu Sans" font-size="10" font-weight="400" text-anchor="middle" id="text_6">1.0</text></g><text x="236.16" y="335.861" font-family="DejaVu Sans" font-size="10" font-weight="400" text-anchor="middle" id="text_7">Probability</text></g><g id="matplotlib.axis_2"><g id="ytick_1"><g id="line2d_7"><defs><path d="M0 0h-3.5" id="mbf7640eab3" stroke="#000" stroke-width=".8"/></defs><use x="57.6" xlink:href="#mbf7640eab3" y="275.959" stroke="#000" stroke-width=".8"/></g><text x="50.6" y="279.758" font-family="DejaVu Sans" font-size="10" font-weight="400" text-anchor="end" id="text_8">5</text></g><g id="ytick_2"><use x="57.6" xlink:href="#mbf7640eab3" y="243.775" stroke="#000" stroke-width=".8" id="line2d_8"/><text x="50.6" y="247.574" font-family="DejaVu Sans" font-size="10" font-weight="400" text-anchor="end" id="text_9">10</text></g><g id="ytick_3"><use x="57.6" xlink:href="#mbf7640eab3" y="211.591" stroke="#000" stroke-width=".8" id="line2d_9"/><text x="50.6" y="215.39" font-family="DejaVu Sans" font-size="10" font-weight="400" text-anchor="end" id="text_10">15</text></g><g id="ytick_4"><use x="57.6" xlink:href="#mbf7640eab3" y="179.407" stroke="#000" stroke-width=".8" id="line2d_10"/><text x="50.6" y="183.206" font-family="DejaVu Sans" font-size="10" font-weight="400" text-anchor="end" id="text_11">20</text></g><g id="ytick_5"><use x="57.6" xlink:href="#mbf7640eab3" y="147.223" stroke="#000" stroke-width=".8" id="line2d_11"/><text x="50.6" y="151.022" font-family="DejaVu Sans" font-size="10" font-weight="400" text-anchor="end" id="text_12">25</text></g><g id="ytick_6"><use x="57.6" xlink:href="#mbf7640eab3" y="115.039" stroke="#000" stroke-width=".8" id="line2d_12"/><text x="50.6" y="118.838" font-family="DejaVu Sans" font-size="10" font-weight="400" text-anchor="end" id="text_13">30</text></g><g id="ytick_7"><use x="57.6" xlink:href="#mbf7640eab3" y="82.855" stroke="#000" stroke-width=".8" id="line2d_13"/><text x="50.6" y="86.655" font-family="DejaVu Sans" font-size="10" font-weight="400" text-anchor="end" id="text_14">35</text></g><g id="ytick_8"><use x="57.6" xlink:href="#mbf7640eab3" y="50.671" stroke="#000" stroke-width=".8" id="line2d_14"/><text x="50.6" y="54.471" font-family="DejaVu Sans" font-size="10" font-weight="400" text-anchor="end" id="text_15">40</text></g><text transform="rotate(-90 31.795 174.528)" x="31.795" y="174.528" font-family="DejaVu Sans" font-size="10" font-weight="400" text-anchor="middle" id="text_16">Average Bits Consumed Per Call</text></g><path clip-path="url(#p82ade3a81a)" d="M73.833 53.568l3.28 186.692 3.278 16.388 3.28-7.904 3.28 13.195 3.278.49 3.28 1.828 3.28.63 3.278 4.378 3.28 1.158 3.28-4.506 3.278 7.171 3.28-3.321 3.28 4.48 3.278-5.974 3.28 5.497 3.28 2.82 3.278-.541 3.28-1.043 3.28.09 3.279 1.88 3.279-.31 3.28 2.15 3.279-.012 3.279-.58 3.28.451 3.279.515 3.279-.45 3.28.643 3.279 1.622 3.279-.76 3.28-1.03 3.279 3.116 3.279-3.501 3.28 3.025 3.279.399 3.279.373 3.28.979 3.279-1.365 3.279 1.275 3.28.321 3.279-.733 3.279 2.935 3.28-2.717 3.279 1.352 3.279 1.803 3.28-2.215 3.279 2.305 3.279.025 3.28.322 3.279-.58 3.279-.308 3.28 1.223 3.279-1.236 3.279.875 3.28 1.25 3.279-.606 3.279 2.111 3.28-3.295 3.279 2.652 3.28-2.163 3.278 1.828 3.28-.67 3.28 1.198 3.278.244 3.28.09 3.28.451 3.278-.013 3.28.09 3.28.013 3.278.386 3.28-.823 3.28 1.39 3.278.399 3.28.412 3.28-.708 3.278-1.082 3.28 1.494 3.28-.206 3.278-.567 3.28 1.223 3.28.914 3.279-.643 3.279.965 3.28-.399 3.279.206 3.279-.116 3.28.09 3.279.863 3.279-.425 3.28.837 3.279.335 3.279-1.21 3.28 1.21 3.279.218 3.279-1.03 3.28 1.687 3.279-.772 3.279.424 3.28.168" fill="none" stroke="#1f77b4" stroke-linecap="square" stroke-width="1.5" id="line2d_15"/><path d="M57.6 307.584V41.472" fill="none" stroke="#000" stroke-linecap="square" stroke-width=".8" id="patch_3"/><path d="M414.72 307.584V41.472" fill="none" stroke="#000" stroke-linecap="square" stroke-width=".8" id="patch_4"/><path d="M57.6 307.584h357.12" fill="none" stroke="#000" stroke-linecap="square" stroke-width=".8" id="patch_5"/><path d="M57.6 41.472h357.12" fill="none" stroke="#000" stroke-linecap="square" stroke-width=".8" id="patch_6"/><text x="236.16" y="35.472" font-family="DejaVu Sans" font-size="12" font-weight="400" text-anchor="middle" id="text_17">Avg. Bits Consumed by pow(x,4/5) Algorithm</text><g id="legend_1"><path d="M322.08 64.15h85.64q2 0 2-2V48.472q0-2-2-2h-85.64q-2 0-2 2V62.15q0 2 2 2z" fill="#fff" opacity=".8" stroke="#ccc" id="patch_7"/><path d="M324.08 54.57h20" fill="none" stroke="#1f77b4" stroke-linecap="square" stroke-width="1.5" id="line2d_16"/><text x="352.081" y="58.07" font-family="DejaVu Sans" font-size="10" font-weight="400" id="text_18">pow(x,4/5)</text></g></g></g><defs><clipPath id="p82ade3a81a"><path d="M57.6 41.472h357.12v266.112H57.6z"/></clipPath></defs></svg>
